assets/images/icon-twitter.svg

<?xml version="1.0" encoding="UTF-8" standalone="no"?>
<svg width="37px" height="68px" viewBox="0 0 37 68" version="1.1" xmlns="http://www.w3.org/2000/svg" xmlns:xlink="http://www.w3.org/1999/xlink" xmlns:sketch="http://www.bohemiancoding.com/sketch/ns">
    <!-- Generator: Sketch 3.5.1 (25234) - http://www.bohemiancoding.com/sketch -->
    <title>Untitled 2</title>
    <desc>Created with Sketch.</desc>
    <defs></defs>
    <g id="Page-1" stroke="none" stroke-width="1" fill="none" fill-rule="evenodd" sketch:type="MSPage">
        <g id="icon-twitter" sketch:type="MSLayerGroup">
            <path d="M37,37.6303711 C35.6269531,38.2446289 34.1816406,38.6601562 32.6279297,38.8408203 C34.2177734,37.9013672 35.4101562,36.4018555 35.9702148,34.6313477 C34.5249023,35.4985352 32.8808594,36.1308594 31.1826172,36.4741211 C29.7553711,35.0288086 27.7861328,34.0893555 25.6000977,34.0893555 C21.4086914,34.0893555 18.0302734,37.4677734 18.0302734,41.6591797 C18.0302734,42.2553711 18.0664062,42.8696289 18.1928711,43.4116211 C11.9057617,43.0683594 6.34130859,40.2138672 2.56542969,35.625 C1.93310547,36.7451172 1.53564453,37.9013672 1.53564453,39.3105469 C1.53564453,41.9121094 2.87255859,44.2246094 4.93212891,45.5976562 C3.68554688,45.5615234 2.52929688,45.2182617 1.49951172,44.6582031 L1.49951172,44.7485352 C1.49951172,48.434082 4.11914062,51.5053711 7.58789062,52.1918945 C6.9375,52.3725586 6.25097656,52.4628906 5.56445312,52.4628906 C5.09472656,52.4628906 4.625,52.4086914 4.15527344,52.3183594 C5.09472656,55.3173828 7.93115234,57.5576172 11.2192383,57.59375 C8.65380859,59.6533203 5.34765625,61.1889648 1.80664062,61.1889648 C1.19238281,61.1889648 0.596191406,61.152832 0,61.0625 C3.34228516,63.2124023 7.37109375,64.1518555 11.652832,64.1518555 C25.6000977,64.1518555 33.2241211,52.5893555 33.2241211,42.5625 L33.2241211,41.5688477 C34.6875,40.5029297 35.9702148,39.184082 37,37.6303711 L37,37.6303711 Z" id="twitter" fill="#DCF1F3" sketch:type="MSShapeGroup"></path>
            <path d="M37,3.63037109 C35.6269531,4.24462891 34.1816406,4.66015625 32.6279297,4.84082031 C34.2177734,3.90136719 35.4101562,2.40185547 35.9702148,0.631347656 C34.5249023,1.49853516 32.8808594,2.13085938 31.1826172,2.47412109 C29.7553711,1.02880859 27.7861328,0.0893554688 25.6000977,0.0893554688 C21.4086914,0.0893554688 18.0302734,3.46777344 18.0302734,7.65917969 C18.0302734,8.25537109 18.0664062,8.86962891 18.1928711,9.41162109 C11.9057617,9.06835938 6.34130859,6.21386719 2.56542969,1.625 C1.93310547,2.74511719 1.53564453,3.90136719 1.53564453,5.31054688 C1.53564453,7.91210938 2.87255859,10.2246094 4.93212891,11.5976562 C3.68554688,11.5615234 2.52929688,11.2182617 1.49951172,10.6582031 L1.49951172,10.7485352 C1.49951172,14.434082 4.11914062,17.5053711 7.58789062,18.1918945 C6.9375,18.3725586 6.25097656,18.4628906 5.56445312,18.4628906 C5.09472656,18.4628906 4.625,18.4086914 4.15527344,18.3183594 C5.09472656,21.3173828 7.93115234,23.5576172 11.2192383,23.59375 C8.65380859,25.6533203 5.34765625,27.1889648 1.80664062,27.1889648 C1.19238281,27.1889648 0.596191406,27.152832 0,27.0625 C3.34228516,29.2124023 7.37109375,30.1518555 11.652832,30.1518555 C25.6000977,30.1518555 33.2241211,18.5893555 33.2241211,8.5625 L33.2241211,7.56884766 C34.6875,6.50292969 35.9702148,5.18408203 37,3.63037109 L37,3.63037109 Z" id="twitter" fill="#FFFFFF" sketch:type="MSShapeGroup"></path>
        </g>
    </g>
</svg>

<svg width="37" height="68" viewBox="0 0 37 68" xmlns="http://www.w3.org/2000/svg"><title>Untitled 2</title><g fill="none" fill-rule="evenodd"><path d="M37 37.63c-1.373.615-2.818 1.03-4.372 1.21 1.59-.94 2.782-2.438 3.342-4.21-1.445.87-3.09 1.5-4.787 1.844-1.428-1.445-3.397-2.385-5.583-2.385-4.19 0-7.57 3.378-7.57 7.57 0 .595.036 1.21.163 1.752-6.287-.344-11.852-3.198-15.628-7.787-.632 1.12-1.03 2.276-1.03 3.686 0 2.602 1.338 4.915 3.397 6.288-1.246-.036-2.403-.38-3.432-.94v.09c0 3.686 2.62 6.757 6.088 7.444-.65.18-1.337.27-2.024.27-.47 0-.94-.053-1.41-.144.94 3 3.777 5.24 7.065 5.276-2.566 2.06-5.872 3.595-9.413 3.595-.615 0-1.21-.037-1.807-.127 3.342 2.15 7.37 3.09 11.653 3.09 13.947 0 21.57-11.564 21.57-21.59v-.994c1.465-1.067 2.747-2.386 3.777-3.94z" fill="#DCF1F3"/><path d="M37 3.63c-1.373.615-2.818 1.03-4.372 1.21 1.59-.94 2.782-2.438 3.342-4.21-1.445.87-3.09 1.5-4.787 1.844C29.755 1.03 27.786.09 25.6.09c-4.19 0-7.57 3.378-7.57 7.57 0 .595.036 1.21.163 1.752C11.906 9.068 6.34 6.214 2.565 1.625c-.632 1.12-1.03 2.276-1.03 3.686 0 2.602 1.338 4.915 3.397 6.288-1.246-.036-2.403-.38-3.432-.94v.09c0 3.686 2.62 6.757 6.088 7.444-.65.18-1.337.27-2.024.27-.47 0-.94-.053-1.41-.144.94 3 3.777 5.24 7.065 5.276-2.566 2.06-5.872 3.595-9.413 3.595-.615 0-1.21-.037-1.807-.128 3.342 2.15 7.37 3.09 11.653 3.09 13.947 0 21.57-11.563 21.57-21.59V7.57C34.69 6.502 35.97 5.183 37 3.63z" fill="#FFF"/></g></svg>
